X: 16362
T: Guns Of The Magnificent Seven, The
R: reel
M: 4/4
K: Adorian
|:EAAG ABcA|EGFA GEDG|EAAG A2B/c/d|e2dB BAAG:|
A2B/c/d e2AA|gedB BAAG|A2B/c/d eaaf|gAed BAAG|
ABcd e2AA|gedB BAAG|A2B/c/d e2af|gedB ABcd|
e2dB A2|e2dB G2B/c/d|e2dB a2eA|egdB BA B/c/d|
e2dB A2|e2dB G2B/c/d|e2dB a2zg|egdB BAAG||

